src/img/icon-tag.svg

<svg width="41" height="49" viewBox="0 0 41 49" fill="none" xmlns="http://www.w3.org/2000/svg">
<path d="M30.5594 25.744L19.6463 19.4433C19.3045 19.2459 18.8688 19.3606 18.6732 19.6994L7.23707 39.5073C7.04146 39.8461 7.16 40.2807 7.50184 40.4781L18.415 46.7788C18.7568 46.9762 19.1925 46.8615 19.3881 46.5227L30.8242 26.7148C31.0198 26.376 30.9013 25.9414 30.5594 25.744Z" stroke="white" stroke-width="0.75" stroke-miterlimit="10"/>
<path d="M19.471 19.342L20.0254 18.8695C20.0963 18.809 20.1786 18.7632 20.2677 18.7345C20.3567 18.7059 20.4506 18.6951 20.5441 18.7027C20.6377 18.7103 20.7289 18.7362 20.8126 18.7789C20.8963 18.8215 20.9709 18.8801 21.032 18.9514L23.2394 21.5161" stroke="white" stroke-width="0.75" stroke-miterlimit="10"/>
<path d="M7.48987 40.4906L2.51332 34.7055C2.45203 34.6344 2.40533 34.552 2.3759 34.4632C2.34647 34.3743 2.33488 34.2807 2.3418 34.1877C2.34872 34.0946 2.37401 34.004 2.41622 33.921C2.45843 33.838 2.51674 33.7642 2.58781 33.7038L18.3007 20.3392" stroke="white" stroke-width="0.75" stroke-miterlimit="10"/>
<path d="M12.7231 43.4933L11.7349 44.3351C11.5914 44.4569 11.4049 44.5166 11.2161 44.5013C11.0274 44.4859 10.8519 44.3967 10.7282 44.2532L7.48981 40.4908" stroke="white" stroke-width="0.75" stroke-miterlimit="10"/>
<path d="M22.0082 27.9572C22.9476 28.4995 24.1449 28.1844 24.6824 27.2534C25.22 26.3223 24.8942 25.1279 23.9548 24.5855C23.0154 24.0432 21.8181 24.3583 21.2806 25.2893C20.743 26.2204 21.0688 27.4148 22.0082 27.9572Z" stroke="white" stroke-width="0.75" stroke-miterlimit="10"/>
<path d="M22.2593 27.5208C22.9555 27.9228 23.843 27.6893 24.2414 26.9992C24.6398 26.3091 24.3984 25.4238 23.7021 25.0218C23.0058 24.6198 22.1184 24.8534 21.72 25.5435C21.3216 26.2335 21.563 27.1188 22.2593 27.5208Z" stroke="white" stroke-width="0.75" stroke-miterlimit="10"/>
<path d="M23.1909 26.1937C23.9332 24.5425 24.7241 22.829 26.1386 21.6976C27.2574 20.8042 28.6682 20.3634 29.9584 19.7465C32.0311 18.7457 33.8502 17.296 35.2834 15.5026C36.7166 13.7093 37.7279 11.6174 38.2439 9.37913" stroke="white" stroke-width="0.75" stroke-miterlimit="10"/>
</svg>

<svg width="41" height="49" fill="none" xmlns="http://www.w3.org/2000/svg"><path d="M30.56 25.744l-10.914-6.3a.711.711 0 0 0-.973.255L7.237 39.507a.712.712 0 0 0 .265.971l10.913 6.3a.711.711 0 0 0 .973-.255l11.436-19.808a.712.712 0 0 0-.265-.971z" stroke="#fff" stroke-width=".75" stroke-miterlimit="10"/><path d="M19.471 19.342l.554-.473a.707.707 0 0 1 .788-.09.718.718 0 0 1 .219.172l2.207 2.565M7.49 40.49l-4.977-5.785a.717.717 0 0 1-.171-.517.703.703 0 0 1 .246-.484L18.3 20.339m-5.577 23.154l-.988.842a.712.712 0 0 1-.519.166.722.722 0 0 1-.488-.248L7.49 40.491m14.518-12.534c.94.543 2.137.227 2.674-.704a1.955 1.955 0 0 0-.727-2.668 1.955 1.955 0 0 0-2.674.704 1.955 1.955 0 0 0 .727 2.668z" stroke="#fff" stroke-width=".75" stroke-miterlimit="10"/><path d="M22.26 27.52a1.45 1.45 0 0 0 1.98-.52 1.45 1.45 0 0 0-.539-1.978 1.45 1.45 0 0 0-1.982.522 1.45 1.45 0 0 0 .54 1.977z" stroke="#fff" stroke-width=".75" stroke-miterlimit="10"/><path d="M23.19 26.194c.743-1.651 1.534-3.365 2.949-4.496 1.118-.894 2.53-1.335 3.82-1.951a15.375 15.375 0 0 0 5.324-4.244 15.318 15.318 0 0 0 2.96-6.124" stroke="#fff" stroke-width=".75" stroke-miterlimit="10"/></svg>
